X:1
T:Leaping Lulu
R:Jig
C:Greg Boardman
B:Portland Collection
M:6/8
K:D
"Bm"F2B B2c|dcB f2B|F2B Bcd|"A"cBA"F#m"F2E|
"Bm"F2B B2c|dcB f2f|"D"faf "A"cec|1"E"B3B2A:|2"3"B3 BcB|
K:A
|:Ace a2a|"E"gab "A"a2e|"D"faf "A"cec|"Bm"dcd "E"BcB|
"A"Ace a2a|"E"gab "A"a2e|"D"faf "A"cec|"E"dBG "A"A3:|[K:D]
